X:1
T:Title
%%score { ( 1 4 ) | ( 2 3 ) }
L:1/8
M:3/4
K:Db
V:1 treble nm="Grand Piano"
V:4 treble 
V:2 bass 
V:3 bass 
V:1
 z2 z[Q:1/4=92] [A,F] [G,E]G | [A,F]3 F AG | [A,F]3 F ED | [G,E]3 F AG |[M:3/8] [A,F]3 | FEG | %6
[M:3/4] [A,F]3 F FF | [B,G]3 G GG | [A,F]3 D[K:bass] [E,C]E |[M:3/8][K:treble] D3 | %10
[M:9/8] [FA][FB][Fd] [Gc]3 G3 | GcB [FA]3 F3 | FGA B3 B3 |[M:3/4] z2 z c3- |[M:3/8] c3 | cde | %16
[M:9/8] [Fd]3 [DF]3 [DF][EG][FA] | c3 B3 Bcd | A3 d3 eBc |[M:3/8] [Fd]3 |] %20
V:2
 z2 z D, z B, | z2 z D CB, | z2 z A, G,F, | z2 z A, CB, |[M:3/8] z3 | A,G,B, |[M:3/4] z2 z D ED | %7
 z2 z D CB, | z2 z F, z G, |[M:3/8] [D,F,]3 |[M:9/8] [D,A,][D,A,][D,A,] [E,A,]3[K:treble] [A,CE]3 | %11
 [A,CE][A,EG][A,DG][K:bass] D3 [A,D]3 | [D,A,D][E,A,C][F,A,D] [G,DG]3 [G,DG]3 | %13
[M:3/4] z2 z[K:treble] [A,E]3- |[M:3/8] [A,E]3 | [A,EG][A,DG][A,CG] | %16
[M:9/8][K:bass] [D,D]3 [D,A,]3 [D,A,][D,A,][D,D] | [G,DG]6 [=G,D_F][G,CF][G,B,F] | %18
 [A,DF]3 [A,DF]3 [A,CG][A,EG][A,EG] |[M:3/8][K:bass] [D,D]3 |] %20
V:3
 z2 z2 D,2 | D,6 | D,6 | A,,6 |[M:3/8] D,3- | D,3 |[M:3/4] D,6 | G,6 | D,4 A,,2 |[M:3/8] x3 | %10
[M:9/8] x6[K:treble] x3 | z3[K:bass] D,6 | x9 |[M:3/4] [E,E][E,E] [E,E][K:treble] A3 |[M:3/8] x3 | %15
 x3 |[M:9/8][K:bass] x9 | x9 | x9 |[M:3/8][K:bass] x3 |] %20
V:4
 x6 | x6 | x6 | x6 |[M:3/8] x3 | x3 |[M:3/4] x6 | x6 | x4[K:bass] x2 |[M:3/8][K:treble] x3 | %10
[M:9/8] x9 | x9 | x9 |[M:3/4] [=GB][Gc] .[Gd]2 z2 |[M:3/8] G3 | x3 |[M:9/8] x9 | x9 | x9 | %19
[M:3/8] x3 |] %20

